packages/web/public/tokens/utori.svg

<svg fill="none" height="2750" viewBox="0 0 2818 2750" width="2818" xmlns="http://www.w3.org/2000/svg" xmlns:xlink="http://www.w3.org/1999/xlink"><filter id="a" color-interpolation-filters="sRGB" filterUnits="userSpaceOnUse" height="2049.25" width="1889" x="407" y="413"><feFlood flood-opacity="0" result="BackgroundImageFix"/><feColorMatrix in="SourceAlpha" result="hardAlpha" type="matrix" values="0 0 0 0 0 0 0 0 0 0 0 0 0 0 0 0 0 0 127 0"/><feOffset dy="4"/><feGaussianBlur stdDeviation="2"/><feComposite in2="hardAlpha" operator="out"/><feColorMatrix type="matrix" values="0 0 0 0 0 0 0 0 0 0 0 0 0 0 0 0 0 0 0.25 0"/><feBlend in2="BackgroundImageFix" mode="normal" result="effect1_dropShadow_3924_21215"/><feBlend in="SourceGraphic" in2="effect1_dropShadow_3924_21215" mode="normal" result="shape"/><feColorMatrix in="SourceAlpha" result="hardAlpha" type="matrix" values="0 0 0 0 0 0 0 0 0 0 0 0 0 0 0 0 0 0 127 0"/><feMorphology in="SourceAlpha" operator="erode" radius="5" result="effect2_innerShadow_3924_21215"/><feOffset dx="20" dy="20"/><feGaussianBlur stdDeviation="2.5"/><feComposite in2="hardAlpha" k2="-1" k3="1" operator="arithmetic"/><feColorMatrix type="matrix" values="0 0 0 0 1 0 0 0 0 1 0 0 0 0 1 0 0 0 1 0"/><feBlend in2="shape" mode="normal" result="effect2_innerShadow_3924_21215"/></filter><linearGradient id="b" gradientUnits="userSpaceOnUse" x1="411" x2="2286" y1="1432.63" y2="1432.63"><stop offset="0" stop-color="#5433ff"/><stop offset=".5" stop-color="#20bdff"/><stop offset="1" stop-color="#a5fecb"/></linearGradient><ellipse cx="1409" cy="1375" fill="#000" rx="1409" ry="1375"/><g fill="url(#b)" filter="url(#a)"><path d="m1009.26 2313.7c-9.528-8.42-15.495-20.15-16.685-32.81l-94.739-1007.88h337.164v1129.15c0 43.06-50.81 65.98-83.09 37.48z"/><path d="m1235 1253.01v-140.7l-355.153-30.68 16.11 171.38z"/><path d="m1235 1092.24-357.055-30.85-55.807-593.711c-2.757-29.333 20.318-54.679 49.78-54.679h313.082c27.61 0 50 22.386 50 50z"/><path d="m1893.99 1253h257.01c13.81 0 25-11.19 25-25v-147.44c0-14.76-12.73-26.31-27.43-24.88l-238.66 23.31z"/><path d="m1889.64 1080.97-355.64 34.72v137.31h339.9z"/><path d="m1514 1117.65v135.35h-947c-13.807 0-25-11.19-25-25v-147.77c0-14.64 12.536-26.15 27.13-24.91l841.64 71.99c1.52.13 3.04.12 4.56-.03z"/><path d="m1619.6 2436.24c-31.4 31.83-85.6 9.59-85.6-35.12v-1551.113h377.25l-131.23 1407.523c-1.08 11.49-6.09 22.25-14.19 30.47z"/><path d="m1913.12 830.007h-379.12v-215.575l401.55-25.05z"/><path d="m1534 463.007v131.386l403.43-25.167 9.48-101.577c2.73-29.32-20.34-54.642-49.79-54.642h-313.12c-27.61 0-50 22.386-50 50z"/><path d="m1235 830.008v-214.948l-401.058-19.737 21.943 234.685z"/><path d="m1255 830.008h1011c11.05 0 20-8.954 20-20v-222.189c0-11.545-9.75-20.692-21.27-19.96l-868.23 55.149-141.5-6.964z"/><path d="m812.114 594.248 23.956 235.76h-405.07c-11.046 0-20-8.954-20-20v-214.492c0-11.431 9.565-20.537 20.983-19.975z"/></g></svg>

<svg width="2818" height="2750" viewBox="0 0 2818 2750" fill="none" xmlns="http://www.w3.org/2000/svg">
<ellipse cx="1409" cy="1375" rx="1409" ry="1375" fill="black"/>
<g filter="url(#filter0_di_3924_21215)">
<path d="M1009.26 2313.7C999.732 2305.28 993.765 2293.55 992.575 2280.89L897.836 1273.01H1235V2402.16C1235 2445.22 1184.19 2468.14 1151.91 2439.64L1009.26 2313.7Z" fill="url(#paint0_linear_3924_21215)"/>
<path d="M1235 1253.01V1112.31L879.847 1081.63L895.957 1253.01H1235Z" fill="url(#paint1_linear_3924_21215)"/>
<path d="M1235 1092.24L877.945 1061.39L822.138 467.679C819.381 438.346 842.456 413 871.918 413H1185C1212.61 413 1235 435.386 1235 463V1092.24Z" fill="url(#paint2_linear_3924_21215)"/>
<path d="M1893.99 1253H2151C2164.81 1253 2176 1241.81 2176 1228V1080.56C2176 1065.8 2163.27 1054.25 2148.57 1055.68L1909.91 1078.99L1893.99 1253Z" fill="url(#paint3_linear_3924_21215)"/>
<path d="M1889.64 1080.97L1534 1115.69V1253H1873.9L1889.64 1080.97Z" fill="url(#paint4_linear_3924_21215)"/>
<path d="M1514 1117.65V1253H567C553.193 1253 542 1241.81 542 1228V1080.23C542 1065.59 554.536 1054.08 569.13 1055.32L1410.77 1127.31C1412.29 1127.44 1413.81 1127.43 1415.33 1127.28L1514 1117.65Z" fill="url(#paint5_linear_3924_21215)"/>
<path d="M1619.6 2436.24C1588.2 2468.07 1534 2445.83 1534 2401.12V850.007H1911.25L1780.02 2257.53C1778.94 2269.02 1773.93 2279.78 1765.83 2288L1619.6 2436.24Z" fill="url(#paint6_linear_3924_21215)"/>
<path d="M1913.12 830.007H1534V614.432L1935.55 589.382L1913.12 830.007Z" fill="url(#paint7_linear_3924_21215)"/>
<path d="M1534 463.007V594.393L1937.43 569.226L1946.91 467.649C1949.64 438.329 1926.57 413.007 1897.12 413.007H1584C1556.39 413.007 1534 435.393 1534 463.007Z" fill="url(#paint8_linear_3924_21215)"/>
<path d="M1235 830.008V615.06L833.942 595.323L855.885 830.008H1235Z" fill="url(#paint9_linear_3924_21215)"/>
<path d="M1255 830.008H2266C2277.05 830.008 2286 821.054 2286 810.008V587.819C2286 576.274 2276.25 567.127 2264.73 567.859L1396.5 623.008L1255 616.044V830.008Z" fill="url(#paint10_linear_3924_21215)"/>
<path d="M812.114 594.248L836.07 830.008H431C419.954 830.008 411 821.054 411 810.008V595.516C411 584.085 420.565 574.979 431.983 575.541L812.114 594.248Z" fill="url(#paint11_linear_3924_21215)"/>
</g>
<defs>
<filter id="filter0_di_3924_21215" x="407" y="413" width="1889" height="2049.25" filterUnits="userSpaceOnUse" color-interpolation-filters="sRGB">
<feFlood flood-opacity="0" result="BackgroundImageFix"/>
<feColorMatrix in="SourceAlpha" type="matrix" values="0 0 0 0 0 0 0 0 0 0 0 0 0 0 0 0 0 0 127 0" result="hardAlpha"/>
<feOffset dy="4"/>
<feGaussianBlur stdDeviation="2"/>
<feComposite in2="hardAlpha" operator="out"/>
<feColorMatrix type="matrix" values="0 0 0 0 0 0 0 0 0 0 0 0 0 0 0 0 0 0 0.25 0"/>
<feBlend mode="normal" in2="BackgroundImageFix" result="effect1_dropShadow_3924_21215"/>
<feBlend mode="normal" in="SourceGraphic" in2="effect1_dropShadow_3924_21215" result="shape"/>
<feColorMatrix in="SourceAlpha" type="matrix" values="0 0 0 0 0 0 0 0 0 0 0 0 0 0 0 0 0 0 127 0" result="hardAlpha"/>
<feMorphology radius="5" operator="erode" in="SourceAlpha" result="effect2_innerShadow_3924_21215"/>
<feOffset dx="20" dy="20"/>
<feGaussianBlur stdDeviation="2.5"/>
<feComposite in2="hardAlpha" operator="arithmetic" k2="-1" k3="1"/>
<feColorMatrix type="matrix" values="0 0 0 0 1 0 0 0 0 1 0 0 0 0 1 0 0 0 1 0"/>
<feBlend mode="normal" in2="shape" result="effect2_innerShadow_3924_21215"/>
</filter>
<linearGradient id="paint0_linear_3924_21215" x1="411" y1="1432.63" x2="2286" y2="1432.63" gradientUnits="userSpaceOnUse">
<stop stop-color="#5433FF"/>
<stop offset="0.5" stop-color="#20BDFF"/>
<stop offset="1" stop-color="#A5FECB"/>
</linearGradient>
<linearGradient id="paint1_linear_3924_21215" x1="411" y1="1432.63" x2="2286" y2="1432.63" gradientUnits="userSpaceOnUse">
<stop stop-color="#5433FF"/>
<stop offset="0.5" stop-color="#20BDFF"/>
<stop offset="1" stop-color="#A5FECB"/>
</linearGradient>
<linearGradient id="paint2_linear_3924_21215" x1="411" y1="1432.63" x2="2286" y2="1432.63" gradientUnits="userSpaceOnUse">
<stop stop-color="#5433FF"/>
<stop offset="0.5" stop-color="#20BDFF"/>
<stop offset="1" stop-color="#A5FECB"/>
</linearGradient>
<linearGradient id="paint3_linear_3924_21215" x1="411" y1="1432.63" x2="2286" y2="1432.63" gradientUnits="userSpaceOnUse">
<stop stop-color="#5433FF"/>
<stop offset="0.5" stop-color="#20BDFF"/>
<stop offset="1" stop-color="#A5FECB"/>
</linearGradient>
<linearGradient id="paint4_linear_3924_21215" x1="411" y1="1432.63" x2="2286" y2="1432.63" gradientUnits="userSpaceOnUse">
<stop stop-color="#5433FF"/>
<stop offset="0.5" stop-color="#20BDFF"/>
<stop offset="1" stop-color="#A5FECB"/>
</linearGradient>
<linearGradient id="paint5_linear_3924_21215" x1="411" y1="1432.63" x2="2286" y2="1432.63" gradientUnits="userSpaceOnUse">
<stop stop-color="#5433FF"/>
<stop offset="0.5" stop-color="#20BDFF"/>
<stop offset="1" stop-color="#A5FECB"/>
</linearGradient>
<linearGradient id="paint6_linear_3924_21215" x1="411" y1="1432.63" x2="2286" y2="1432.63" gradientUnits="userSpaceOnUse">
<stop stop-color="#5433FF"/>
<stop offset="0.5" stop-color="#20BDFF"/>
<stop offset="1" stop-color="#A5FECB"/>
</linearGradient>
<linearGradient id="paint7_linear_3924_21215" x1="411" y1="1432.63" x2="2286" y2="1432.63" gradientUnits="userSpaceOnUse">
<stop stop-color="#5433FF"/>
<stop offset="0.5" stop-color="#20BDFF"/>
<stop offset="1" stop-color="#A5FECB"/>
</linearGradient>
<linearGradient id="paint8_linear_3924_21215" x1="411" y1="1432.63" x2="2286" y2="1432.63" gradientUnits="userSpaceOnUse">
<stop stop-color="#5433FF"/>
<stop offset="0.5" stop-color="#20BDFF"/>
<stop offset="1" stop-color="#A5FECB"/>
</linearGradient>
<linearGradient id="paint9_linear_3924_21215" x1="411" y1="1432.63" x2="2286" y2="1432.63" gradientUnits="userSpaceOnUse">
<stop stop-color="#5433FF"/>
<stop offset="0.5" stop-color="#20BDFF"/>
<stop offset="1" stop-color="#A5FECB"/>
</linearGradient>
<linearGradient id="paint10_linear_3924_21215" x1="411" y1="1432.63" x2="2286" y2="1432.63" gradientUnits="userSpaceOnUse">
<stop stop-color="#5433FF"/>
<stop offset="0.5" stop-color="#20BDFF"/>
<stop offset="1" stop-color="#A5FECB"/>
</linearGradient>
<linearGradient id="paint11_linear_3924_21215" x1="411" y1="1432.63" x2="2286" y2="1432.63" gradientUnits="userSpaceOnUse">
<stop stop-color="#5433FF"/>
<stop offset="0.5" stop-color="#20BDFF"/>
<stop offset="1" stop-color="#A5FECB"/>
</linearGradient>
</defs>
</svg>
